images/icons/v2/mic-outline-24.svg

<svg height="24" viewBox="0 0 24 24" width="24" xmlns="http://www.w3.org/2000/svg"><path d="m12 2.5a3 3 0 0 1 3 3v6a3 3 0 0 1 -6 0v-6a3 3 0 0 1 3-3m0-1.5a4.5 4.5 0 0 0 -4.5 4.5v6a4.5 4.5 0 0 0 4.5 4.5 4.5 4.5 0 0 0 4.5-4.5v-6a4.5 4.5 0 0 0 -4.5-4.5zm8 10.5h-1.5a6.5 6.5 0 0 1 -13 0h-1.5a8.01 8.01 0 0 0 7.25 7.962v3.538h1.5v-3.538a8.01 8.01 0 0 0 7.25-7.962z"/></svg>

<svg xmlns="http://www.w3.org/2000/svg" width="24" height="24" viewBox="0 0 24 24"><title>mic-outline-24</title><path d="M12,2.5a3,3,0,0,1,3,3v6a3,3,0,0,1-6,0v-6a3,3,0,0,1,3-3M12,1h0A4.5,4.5,0,0,0,7.5,5.5v6A4.5,4.5,0,0,0,12,16h0a4.5,4.5,0,0,0,4.5-4.5v-6A4.5,4.5,0,0,0,12,1Zm8,10.5H18.5a6.5,6.5,0,0,1-13,0H4a8.01,8.01,0,0,0,7.25,7.962V23h1.5V19.462A8.01,8.01,0,0,0,20,11.5Z"/></svg>
